X: 123
T: Xiang nian nin a, qinai de ren Well, I go for my native land!
L: 1/4
M: 2/4
K: C
G/G3/ [I:setbarnb 1]| 
GD | 
GE | 
G2 | 
G// G//G3/ | 
GD | 
GE | 
D2 | 
CC | 
CA, | 
CD | 
E2 | 
D2 | 
D2 | 
C | 
A, | 
CE | 
G2 |]

@@@ Tune index: 8791
